src/images/skill/bushcraft/palm.svg

<svg xmlns="http://www.w3.org/2000/svg" viewBox="0 0 512 512" style="height: 512px; width: 512px;"><g class="" transform="translate(0,0)" style=""><path d="M179.125 20.625c-28.052.12-54.046 5.813-66.72 9.78 0 0 114.968 19.51 124.532 98.876C149.573 3.32 54.28 155.657 54.28 155.657c19.868-5.212 76.76-20.682 114.75-14.156 25.992 4.465 51.33 28.03 50.236 27.733-61.943 15.24-160.35 290.92-143.64 313.308 14.9 17.12 29.816 11.28 44.718 2.595 7.376-58.425 64.938-314.765 135.375-294.072.01.003.02-.003.03 0 5.93 2.03 11.54 5.59 11.844 11.03.58 10.363-6.11 27.3-4.53 39.063 3.662 27.296 9.007 36.79 16.78 46.313 18.564-10.435 36.326-48.057 40-67.564 16.634 7.284 43.373 24.155 65.187 86.813 11.404-58.716-5.042-105.03-59.03-125.595 23.38-10.105 125.142 41.03 137.563 69.53C475.648 199.264 390.167 136.378 319 139.72c13.644-3.56 28.638.6 42.906-9.907 19.146-14.098 41.474-26.24 62.28-39.282-69.972-30.435-134.545-15.407-139.092 16.095-3.573-69.916-57.83-86.204-105.97-86z" fill="#fff" fill-opacity="1"></path></g></svg>

<svg xmlns="http://www.w3.org/2000/svg" viewBox="0 0 512 512" style="height: 512px; width: 512px;"><g class="" transform="translate(0,0)" style=""><g><path d="M179.125 20.625C151.073 20.745 125.079 26.438 112.405 30.405C112.405 30.405 227.373 49.915 236.937 129.281C149.573 3.32 54.28 155.657 54.28 155.657C74.148 150.445 131.04 134.975 169.03 141.501C195.022 145.966 220.36 169.531 219.266 169.234C157.323 184.474 58.916 460.154 75.626 482.542C90.526 499.662 105.442 493.822 120.344 485.137C127.72 426.712 185.282 170.372 255.719 191.065C255.729 191.068 255.739 191.062 255.749 191.065C261.679 193.095 267.289 196.655 267.593 202.095C268.173 212.458 261.483 229.395 263.063 241.158C266.725 268.454 272.07 277.948 279.843 287.471C298.407 277.036 316.169 239.414 319.843 219.907C336.477 227.191 363.216 244.062 385.03 306.72C396.434 248.004 379.988 201.69 326 181.125C349.38 171.02 451.142 222.155 463.563 250.655C475.648 199.264 390.167 136.378 319 139.72C332.644 136.16 347.638 140.32 361.906 129.813C381.052 115.715 403.38 103.573 424.186 90.531C354.214 60.096 289.641 75.124 285.094 106.626C281.521 36.71 227.264 20.422 179.124 20.626Z" class="selected" fill="#86cc60" fill-opacity="1" stroke="#b99d4f" stroke-opacity="1" stroke-width="16"></path></g></g></svg>
